images/hero/work.svg

<svg width="62" height="62" viewBox="0 0 62 62" fill="none" xmlns="http://www.w3.org/2000/svg">
<rect opacity="0.58" width="62" height="62" fill="white"/>
<path d="M51.5633 34.0076C51.4665 33.9109 51.3517 33.8341 51.2253 33.7817C51.0989 33.7294 50.9634 33.7024 50.8266 33.7024C50.6898 33.7024 50.5543 33.7294 50.4279 33.7817C50.3015 33.8341 50.1866 33.9109 50.0899 34.0076L48.8695 35.228L47.8278 34.1863V29.9673C47.8277 27.3328 46.7811 24.8061 44.9182 22.9433C43.0553 21.0804 40.5287 20.0338 37.8942 20.0338H37.8421L35.8849 18.0767C33.915 16.096 31.2666 14.9372 28.475 14.8343L26.7711 13.1304L27.9916 11.91C28.0883 11.8133 28.1651 11.6984 28.2174 11.572C28.2698 11.4457 28.2967 11.3102 28.2967 11.1734C28.2967 11.0366 28.2698 10.9011 28.2174 10.7747C28.1651 10.6483 28.0883 10.5335 27.9916 10.4367L17.6785 0.123596L16.2054 1.59648L25.7816 11.1725L11.0493 25.9048L1.4734 16.3292L0 17.8019L10.3125 28.1151C10.4092 28.2118 10.5241 28.2886 10.6505 28.341C10.7769 28.3933 10.9124 28.4203 11.0492 28.4203C11.186 28.4203 11.3215 28.3933 11.4479 28.341C11.5743 28.2886 11.6892 28.2118 11.7859 28.1151L12.7969 27.1039L14.4923 28.7994V33.5765C14.4921 34.0765 14.6119 34.5693 14.8417 35.0134C15.0715 35.4575 15.4045 35.84 15.8128 36.1286C16.2211 36.4173 16.6928 36.6037 17.1881 36.6722C17.6834 36.7407 18.1879 36.6894 18.6593 36.5224V37.7434C18.659 38.2435 18.7788 38.7362 19.0086 39.1803C19.2384 39.6245 19.5714 40.0069 19.9797 40.2956C20.388 40.5842 20.8597 40.7707 21.355 40.8392C21.8503 40.9077 22.3548 40.8563 22.8262 40.6893V41.9103C22.8259 42.4104 22.9458 42.9032 23.1755 43.3473C23.4053 43.7914 23.7384 44.1738 24.1467 44.4625C24.555 44.7512 25.0266 44.9376 25.5219 45.0061C26.0172 45.0746 26.5218 45.0232 26.9931 44.8562V46.0773C26.9927 46.7101 27.1845 47.3281 27.5432 47.8494C27.9019 48.3708 28.4104 48.7709 29.0015 48.9968C29.5927 49.2227 30.2384 49.2637 30.8534 49.1144C31.4683 48.9651 32.0234 48.6325 32.4451 48.1607H33.8538L34.8956 49.2025L33.8844 50.2136C33.7877 50.3103 33.7109 50.4252 33.6586 50.5516C33.6062 50.678 33.5793 50.8134 33.5793 50.9502C33.5793 51.087 33.6062 51.2225 33.6586 51.3489C33.7109 51.4753 33.7877 51.5901 33.8844 51.6869L44.1976 62L45.6705 60.5257L36.0943 50.9497L50.827 36.2174L60.4029 45.7934L61.8763 44.3201L51.5633 34.0076ZM30.1183 47.1186C29.8421 47.1183 29.5773 47.0084 29.382 46.8132C29.1867 46.6179 29.0769 46.3531 29.0766 46.0769V37.743H26.9931V41.91C26.9931 42.1862 26.8834 42.4512 26.688 42.6466C26.4926 42.8419 26.2277 42.9517 25.9514 42.9517C25.6751 42.9517 25.4101 42.8419 25.2148 42.6466C25.0194 42.4512 24.9096 42.1862 24.9096 41.91V33.5761H22.8262V37.743C22.8262 38.0193 22.7164 38.2843 22.5211 38.4796C22.3257 38.675 22.0607 38.7848 21.7844 38.7848C21.5082 38.7848 21.2432 38.675 21.0478 38.4796C20.8525 38.2843 20.7427 38.0193 20.7427 37.743V30.4509H18.6593V33.5761C18.6593 33.8524 18.5495 34.1173 18.3541 34.3127C18.1588 34.5081 17.8938 34.6178 17.6175 34.6178C17.3412 34.6178 17.0763 34.5081 16.8809 34.3127C16.6855 34.1173 16.5758 33.8524 16.5758 33.5761V28.3674C16.5758 28.2306 16.5488 28.0952 16.4965 27.9688C16.4442 27.8424 16.3674 27.7275 16.2707 27.6308L14.2702 25.6303L25.2977 14.6028L27.2982 16.6026C27.3949 16.6994 27.5098 16.7761 27.6362 16.8285C27.7626 16.8809 27.898 16.9078 28.0348 16.9079C29.2196 16.9046 30.3932 17.1364 31.4878 17.5898C32.5823 18.0432 33.5761 18.7091 34.4115 19.5492L34.8954 20.0331H24.9096C24.6334 20.0331 24.3684 20.1428 24.173 20.3382C23.9777 20.5335 23.8679 20.7985 23.8679 21.0748C23.8707 22.7986 24.4389 24.4739 25.4852 25.8438C26.5315 27.2137 27.9983 28.2027 29.6606 28.659L31.16 29.0679V46.0769C31.1597 46.3531 31.0499 46.6179 30.8546 46.8132C30.6593 47.0084 30.3945 47.1183 30.1183 47.1186ZM35.0219 46.382C34.9251 46.2852 34.8103 46.2085 34.6839 46.1562C34.5575 46.1038 34.422 46.0769 34.2852 46.0769H33.2435V29.6365L35.327 30.2048V30.4509C35.3285 31.8318 35.8778 33.1558 36.8543 34.1323C37.8307 35.1087 39.1547 35.658 40.5356 35.6596C40.8119 35.6596 41.0769 35.5498 41.2722 35.3544C41.4676 35.1591 41.5774 34.8941 41.5774 34.6178C41.5774 34.3415 41.4676 34.0766 41.2722 33.8812C41.0769 33.6858 40.8119 33.5761 40.5356 33.5761C39.7071 33.5752 38.9127 33.2456 38.3268 32.6597C37.7409 32.0738 37.4114 31.2795 37.4104 30.4509V29.4092C37.4104 29.1805 37.3352 28.9583 37.1964 28.7766C37.0575 28.595 36.8628 28.464 36.6422 28.404L30.2082 26.6494C29.1589 26.361 28.212 25.7829 27.4761 24.9813C26.7401 24.1797 26.2448 23.1871 26.0468 22.117H37.8947C38.9256 22.117 39.9464 22.32 40.8988 22.7145C41.8512 23.109 42.7166 23.6872 43.4456 24.4162C44.1746 25.1451 44.7528 26.0105 45.1473 26.9629C45.5418 27.9153 45.7448 28.9361 45.7448 29.967V34.6178C45.7448 34.8941 45.8546 35.159 46.0499 35.3543L47.3967 36.7013L36.3692 47.7287L35.0219 46.382Z" fill="#CB8734"/>
<path d="M7.43893 27.085H5.35547V59.3787C5.35547 59.655 5.46522 59.92 5.66059 60.1153C5.85595 60.3107 6.12092 60.4205 6.3972 60.4205H37.6492V58.337H7.43893V27.085Z" fill="#CB8734"/>
<path d="M55.3586 35.4189H57.4421V1.04173C57.4421 0.765448 57.3323 0.500479 57.137 0.305116C56.9416 0.109754 56.6766 0 56.4004 0H22.0232V2.08346H55.3586V35.4189Z" fill="#CB8734"/>
<path d="M47.0247 5.20868C45.9945 5.20868 44.9875 5.51416 44.1309 6.0865C43.2744 6.65883 42.6068 7.47231 42.2125 8.42407C41.8183 9.37583 41.7151 10.4231 41.9161 11.4335C42.1171 12.4439 42.6132 13.372 43.3416 14.1004C44.0701 14.8289 44.9982 15.3249 46.0085 15.5259C47.0189 15.7269 48.0662 15.6237 49.018 15.2295C49.9697 14.8353 50.7832 14.1677 51.3555 13.3111C51.9279 12.4546 52.2334 11.4475 52.2334 10.4173C52.2318 9.03639 51.6825 7.71245 50.7061 6.73597C49.7296 5.7595 48.4057 5.21023 47.0247 5.20868ZM47.0247 13.5425C46.4066 13.5425 45.8024 13.3592 45.2884 13.0158C44.7745 12.6724 44.3739 12.1844 44.1374 11.6133C43.9009 11.0422 43.839 10.4139 43.9596 9.80765C44.0801 9.20142 44.3778 8.64456 44.8149 8.20749C45.2519 7.77043 45.8088 7.47278 46.415 7.35219C47.0212 7.23161 47.6496 7.2935 48.2207 7.53004C48.7917 7.76657 49.2798 8.16714 49.6232 8.68107C49.9666 9.19501 50.1499 9.79924 50.1499 10.4173C50.1489 11.2459 49.8194 12.0402 49.2335 12.6261C48.6476 13.212 47.8533 13.5416 47.0247 13.5425Z" fill="#CB8734"/>
<path d="M1.18848 32.2937H3.27194V53.1283H1.18848V32.2937Z" fill="#CB8734"/>
<path d="M59.5255 5.20868H61.609V28.1268H59.5255V5.20868Z" fill="#CB8734"/>
</svg>

<svg width="62" height="62" fill="none" xmlns="http://www.w3.org/2000/svg"><path opacity=".58" fill="#fff" d="M0 0h62v62H0z"/><path d="M51.563 34.008a1.044 1.044 0 0 0-1.473 0l-1.22 1.22-1.042-1.042v-4.219a9.934 9.934 0 0 0-9.934-9.933h-.052l-1.957-1.957a11.023 11.023 0 0 0-7.41-3.243l-1.704-1.704 1.22-1.22a1.041 1.041 0 0 0 0-1.473L17.679.124l-1.473 1.472 9.577 9.576-14.733 14.733-9.576-9.576L0 17.802l10.313 10.313a1.043 1.043 0 0 0 1.473 0l1.01-1.011 1.696 1.695v4.778a3.124 3.124 0 0 0 4.167 2.945v1.221a3.122 3.122 0 0 0 4.167 2.946v1.221a3.124 3.124 0 0 0 4.167 2.946v1.221a3.123 3.123 0 0 0 5.452 2.084h1.409l1.042 1.041-1.012 1.012a1.041 1.041 0 0 0 0 1.473L44.198 62l1.472-1.474-9.576-9.576 14.733-14.733 9.576 9.576 1.473-1.473-10.313-10.312zm-21.445 13.11a1.043 1.043 0 0 1-1.041-1.041v-8.334h-2.084v4.167a1.042 1.042 0 0 1-2.083 0v-8.334h-2.084v4.167a1.042 1.042 0 0 1-2.083 0v-7.292h-2.084v3.125a1.042 1.042 0 0 1-2.083 0v-5.209a1.042 1.042 0 0 0-.305-.736l-2-2 11.027-11.028 2 2a1.041 1.041 0 0 0 .737.305 8.958 8.958 0 0 1 6.376 2.641l.484.484H24.91a1.042 1.042 0 0 0-1.042 1.042 7.878 7.878 0 0 0 5.793 7.584l1.499.409v17.009a1.043 1.043 0 0 1-1.042 1.042zm4.904-.736a1.04 1.04 0 0 0-.737-.305h-1.041v-16.44l2.083.568v.246a5.214 5.214 0 0 0 5.209 5.209 1.041 1.041 0 1 0 0-2.084 3.129 3.129 0 0 1-3.126-3.125v-1.042a1.042 1.042 0 0 0-.768-1.005l-6.434-1.755a5.793 5.793 0 0 1-4.161-4.532h11.848a7.85 7.85 0 0 1 7.85 7.85v4.65c0 .277.11.542.305.737l1.347 1.347L36.369 47.73l-1.347-1.347z" fill="#CB8734"/><path d="M7.439 27.085H5.355v32.294a1.042 1.042 0 0 0 1.042 1.041H37.65v-2.083H7.44V27.085zM55.359 35.419h2.083V1.042A1.042 1.042 0 0 0 56.4 0H22.023v2.083H55.36V35.42z" fill="#CB8734"/><path d="M47.025 5.209a5.209 5.209 0 1 0 0 10.417 5.209 5.209 0 0 0 0-10.417zm0 8.334a3.125 3.125 0 1 1 0-6.251 3.125 3.125 0 0 1 0 6.25zM1.188 32.294h2.084v20.834H1.188V32.294zM59.526 5.209h2.083v22.918h-2.084V5.209z" fill="#CB8734"/></svg>
